src/lib/packages/icons/src/assets/filled/home-roof-lock.svg

<svg width="24" height="24" viewBox="0 0 24 24" fill="none" xmlns="http://www.w3.org/2000/svg">
<path d="M12.9999 11.2499V12.6249H10.9999V11.2499C10.9999 10.6989 11.4479 10.2499 11.9999 10.2499C12.5519 10.2499 12.9999 10.6989 12.9999 11.2499ZM21.5789 10.1409C21.4309 10.3209 21.2159 10.4139 20.9999 10.4139C20.8319 10.4139 20.6629 10.358 20.5229 10.243L19.4999 9.40095V17.9999C19.4999 20.2899 18.2899 21.4999 15.9999 21.4999H7.99995C5.70995 21.4999 4.49995 20.2899 4.49995 17.9999V9.40192L3.477 10.244C3.158 10.506 2.68497 10.4619 2.42097 10.1409C2.15697 9.81994 2.204 9.34791 2.524 9.08491L9.93598 2.98994C11.133 2.00694 12.8679 2.00694 14.0649 2.98994L21.477 9.086C21.796 9.348 21.8429 9.81994 21.5789 10.1409ZM15.4999 14.1249C15.4999 13.3149 15.1549 12.851 14.4999 12.696V11.2499C14.4999 9.87195 13.3789 8.74995 11.9999 8.74995C10.6209 8.74995 9.49995 9.87195 9.49995 11.2499V12.696C8.84495 12.85 8.49995 13.3149 8.49995 14.1249V16.3749C8.49995 17.3749 8.99995 17.8749 9.99995 17.8749H13.9999C14.9999 17.8749 15.4999 17.3749 15.4999 16.3749V14.1249Z" fill="currentColor"/>
</svg>

<svg xmlns="http://www.w3.org/2000/svg" width="24" height="24" fill="none"><path fill="currentColor" d="M13 11.25v1.375h-2V11.25a1.001 1.001 0 0 1 2 0Zm8.579-1.11a.748.748 0 0 1-1.056.103L19.5 9.401V18c0 2.29-1.21 3.5-3.5 3.5H8c-2.29 0-3.5-1.21-3.5-3.5V9.402l-1.023.842a.75.75 0 0 1-.953-1.16L9.936 2.99a3.26 3.26 0 0 1 4.129 0l7.412 6.096a.749.749 0 0 1 .102 1.055Zm-6.08 3.985c0-.81-.344-1.274-1-1.429V11.25c0-1.378-1.12-2.5-2.5-2.5a2.503 2.503 0 0 0-2.5 2.5v1.446c-.654.154-1 .619-1 1.429v2.25c0 1 .5 1.5 1.5 1.5h4c1 0 1.5-.5 1.5-1.5v-2.25Z"/></svg>
